X:149
T:Black Rogue, The
T:An R\'ogaire Dubh
R:jig
H:Also in Dmix, #345
D:Tommy Keane and Jacqueline McCarthy: Wind among the Reeds
Z:id:hn-jig-149
M:6/8
K:D
d | cAA BAG | cAA A2d | cAA BAG | AFD D2d |
cAA BAG | cAA AFD | ~G3 BAG | AFD D2 :|
|: e | ~f3 gfg | afd cBA | faf ~g3 | afd dfg |
a2f gfe | fed efd | cAA BAG | AFD D2 :|
W:T\'a mo stoca is mo bhr\'oga ag an r\'ogaire dubh,
W:T\'a mo stoca is mo bhr\'oga ag an r\'ogaire dubh,
W:T\'a mo stoca is mo bhr\'oga ag an r\'ogaire dubh,
W:Mo naipic\'in p\'oca le bliain is an l\'a inniu.
W:
W:T\'a nead ins an sliabh ag an r\'ogaire dubh,
W:T\'a nead ins an sliabh ag an r\'ogaire dubh,
W:T\'a nead ins an sliabh ag an r\'ogaire dubh,
W:Is n\'i ghabhfaidh s\'e an b\'othar ach c\'ongar an chnoic.
W:
W:D\'a bhfeicte\'asa M\'aire taobh eile den tsruth,
W:D\'a bhfeicte\'asa M\'aire taobh eile den tsruth,
W:D\'a bhfeicte\'asa M\'aire taobh eile den tsruth,
W:Is a dh\'a chois in airde ag an r\'ogaire dubh.

